X:133
T:Victoria Polka. Le4.133
M:2/4
L:1/8
Q:1/4=100
B:L.Leadley MS#4 c1850
Z:Village Music Project, 2016 Ruairidh Greig
K:A
.A/.B/.c .c/.B/.c|.d/.e/.f.e2|ae e/d/c|.d/.c/.B (cE)|
.A/.B/.c {d/}.c/.^B/.c|.d/.e/.fe2|.e/.^d/.c .B/.^A/.B|.a.^d.ez|
.A/.B/.c {d/}.c/.^B/.c|.d/.e/.f.e2|.a.e .e/.d/.c|.d/.c/.B (.c.E)|
.A/.B/.c .c/.^B/.c|.d/.e/.f.e2|.e/.^d/.c {c/}.B/.^A/.B|a^dez|
|:ec a>g|fB d'>c'|beee|e(A/c/) ee|
ec a>g|fc d'>c'|bfge|ac'azH:|
B:L.Leadley MS#4 c1850
Z:Village Music Project, 2016 Ruairidh Greig
K:D
|:A(B/e/) .a.a|c'(b/B/) .e.e|a(g/A/) .c.c|a(f/A/) .d.d|
A(d/f/) .a.a|c'(b/B/) .e.e|a(g/A/) f(e/A/)|dfdz:|
|:(f/e/)e (a/^g/).g|(d'/c'/)(b/a/)e2|(a/^g/)(g/A/)d2|(f/e/)(e/A/)c2|
(f/e/)e  (a/^g/)g|(d'/c'/)(b/a/)g2|(a/^g/)(g/B/) (f/e/)(e/^G/)|A2z2z|
A(d/e/) .a.a|c'(b/B/) .e.e|a(g/A/) .c.c|a(f/A/) .d.d|
A(d/e/) .a.a|c'(b/B/) .e.e|a(g/A/) f(e/A/)|dfd"D.C."z:|

